X:1
T:Title
%%score { ( 1 4 ) | ( 2 3 ) }
L:1/8
Q:1/4=100
M:6/8
K:Ab
V:1 treble nm="Grand Piano"
V:4 treble 
V:2 bass 
V:3 bass 
V:1
 [Ec]B[A,CA][K:bass] [A,CE][E,A,C][E,B,D] | .[A,CE]2 [DB] [Ec]2 c/c/ | dcB .[B,=DA]2 [B,DA] | %3
w: William~A.~May * * * * *|||
 B3- B2 E/E/ | [Ec][DB][CA] [CE][A,C][B,D] | [CE][_C=D][=CE] [_DF]2 [FA]/[FB]/ | cdc BEB | [CA]6 | %8
w: |||||
 dBG E[_C=D][=CE] | [EA]2 [EB] [Ec]2 [Ec]/[Ec]/ | B=A[EB] [F=d][Ec][Ad] | [Ge]3- [Ge]2 [Ed]/[Ed]/ | %12
w: ||||
 [Ec][DB][CA][K:bass] [A,CE][A,C][E,B,D] | [CE][_C=D][K:treble][=CE] F2 A/B/ | c2 c BEB | [CA]6 |] %16
w: ||||
V:2
 .[A,,A,]3 z3 | z A[A,,A,] [A,,A,]2 [A,E]/[A,E]/ | [E,E]-[E,A,E][F,A,=D] z GB,, | %3
 [E,G,E]3- [E,G,E]2 [E,G,]/[E,G,]/ | [A,,A,]2 [A,,A,] [A,,A,][A,,E,][A,,E,] | %5
 [A,,A,]2 [A,,A,] [D,A,]2 [D,A,]/[D,A,]/ | [E,A,E][E,B,E][E,A,E] [E,G,D]2 [E,G,D] | [A,,A,]6 | %8
 [E,G,E][E,G,E][D,B,E] [C,A,][A,,A,][A,,A,] | [C,A,]2 [E,G,] [A,,A,]2 [A,,A,]/[A,,A,]/ | %10
 G,_G,[B,,=G,] [B,,B,]2 [B,,B,] | [E,B,]3- [E,B,]2 [E,G,]/[E,G,]/ | [A,,A,][A,,A,][A,,A,] z E,A,, | %13
 [A,,A,]2 [A,,A,] [D,A,D]2 [F,A,=D]/[F,A,D]/ | [E,A,E]2 [E,A,E] [E,G,D]2 [E,G,D] | [A,,A,]6 |] %16
V:3
 z DA,, A,,A,,A,, | .A,,3 z3 | .B,3 .B,,3 | x6 | x6 | x6 | x6 | x6 | x6 | x6 | .B,,3 z3 | x6 | %12
 z3 .A,,3 | x6 | x6 | x6 |] %16
V:4
 x3[K:bass] x3 | x6 | x6 | x6 | x6 | x6 | x6 | x6 | x6 | x6 | .E3 z3 | x6 | x3[K:bass] x3 | %13
 x2[K:treble] x4 | x6 | x6 |] %16

